app/images/icons/heart-icon.svg

<svg xmlns="http://www.w3.org/2000/svg" width="17.875" height="15.531" viewBox="0 0 17.875 15.531">
  <defs>
    <style>
      .cls-1 {
        fill: #243f4d;
        fill-rule: evenodd;
      }
    </style>
  </defs>
  <path class="cls-1" d="M9.913,16.244a0.706,0.706,0,0,1-.279-0.056c-0.353-.15-8.65-3.749-8.65-10.76a4.818,4.818,0,0,1,8.93-2.4A4.818,4.818,0,0,1,18.842,5.4c0,7.034-8.3,10.634-8.649,10.783A0.709,0.709,0,0,1,9.913,16.244ZM5.8,2.106A3.424,3.424,0,0,0,2.393,5.452c0,5.407,6.125,8.662,7.52,9.334,1.4-.672,7.52-3.93,7.52-9.358a3.409,3.409,0,0,0-6.816.024,0.7,0.7,0,0,1-.7.669h0a0.7,0.7,0,0,1-.7-0.669A3.424,3.424,0,0,0,5.8,2.106Z" transform="translate(-0.969 -0.719)"/>
</svg>

<svg 
 xmlns="http://www.w3.org/2000/svg"
 xmlns:xlink="http://www.w3.org/1999/xlink"
 width="19px" height="17px">
<path fill-rule="evenodd"  fill="rgb(36, 63, 77)"
 d="M9.913,16.244 C9.818,16.244 9.722,16.226 9.633,16.188 C9.280,16.039 0.983,12.439 0.983,5.429 C1.074,2.779 3.190,0.721 5.801,0.721 C7.544,0.721 9.067,1.639 9.913,3.031 C10.760,1.639 12.282,0.721 14.025,0.721 C16.634,0.721 18.750,2.779 18.842,5.405 C18.842,12.439 10.545,16.039 10.193,16.188 C10.103,16.226 10.008,16.244 9.913,16.244 ZM5.801,2.106 C3.954,2.106 2.458,3.576 2.393,5.452 C2.393,10.860 8.518,14.115 9.913,14.787 C11.308,14.115 17.433,10.857 17.433,5.429 C17.368,3.576 15.870,2.106 14.025,2.106 C12.180,2.106 10.683,3.576 10.617,5.452 C10.605,5.825 10.293,6.121 9.913,6.121 L9.913,6.121 C9.533,6.121 9.221,5.825 9.208,5.452 C9.144,3.576 7.647,2.106 5.801,2.106 Z"/>
</svg>
